to trianglek
repeat 100[triangle rt 360/100]
end
cs
pd
trianglek
pu
seth 90
fd 200
seth 90
seth 0
pd
repeat 5000[triangle rt 360/1000]
pu
seth 270
fd 500
seth 0
pd
repeat 200[triangle rt 360/200]
























































































































































































































































































































































































































































































































































































































































































































































































































































































































































































































































































































































































































