cs
pd
repeat 3[repeat 4[fd 100 lt 90]lt 90 pu fd 150 rt 90 pd]
repeat 4[repeat 100[fd 1 rt 360/100]repeat 50[fd 1 lt 180/50]]
pu
home
rt 90
fd 500
seth 0
pd
repeat 3[repeat 2[fd 20 rt 90 fd 120 rt 90]rt 90 pu fd 150 lt 90 pd]



































































































































































































































































































































































































































































































